vendor/shopware/storefront/Resources/app/storefront/dist/assets/icon/default/chart-bar-filled.svg

<svg xmlns="http://www.w3.org/2000/svg" width="24" height="24" viewBox="0 0 24 24">
  <path fill="#758CA3" fill-rule="evenodd" d="M4,15 C3.44771525,15 3,15.4477153 3,16 L3,21 C3,21.5522847 3.44771525,22 4,22 C4.55228475,22 5,21.5522847 5,21 L5,16 C5,15.4477153 4.55228475,15 4,15 Z M4,13 C5.65685425,13 7,14.3431458 7,16 L7,21 C7,22.6568542 5.65685425,24 4,24 C2.34314575,24 1,22.6568542 1,21 L1,16 C1,14.3431458 2.34314575,13 4,13 Z M12,0 C13.6568542,0 15,1.34314575 15,3 L15,21 C15,22.6568542 13.6568542,24 12,24 C10.3431458,24 9,22.6568542 9,21 L9,3 C9,1.34314575 10.3431458,0 12,0 Z M12,2 C11.4477153,2 11,2.44771525 11,3 L11,21 C11,21.5522847 11.4477153,22 12,22 C12.5522847,22 13,21.5522847 13,21 L13,3 C13,2.44771525 12.5522847,2 12,2 Z M20,7 C21.6568542,7 23,8.34314575 23,10 L23,21 C23,22.6568542 21.6568542,24 20,24 C18.3431458,24 17,22.6568542 17,21 L17,10 C17,8.34314575 18.3431458,7 20,7 Z M20,9 C19.4477153,9 19,9.44771525 19,10 L19,21 C19,21.5522847 19.4477153,22 20,22 C20.5522847,22 21,21.5522847 21,21 L21,10 C21,9.44771525 20.5522847,9 20,9 Z"/>
</svg>

<svg xmlns="http://www.w3.org/2000/svg" width="24" height="24" viewBox="0 0 24 24"><path fill="#758CA3" fill-rule="evenodd" d="M4 15c-.5523 0-1 .4477-1 1v5c0 .5523.4477 1 1 1s1-.4477 1-1v-5c0-.5523-.4477-1-1-1zm0-2c1.6569 0 3 1.3431 3 3v5c0 1.6569-1.3431 3-3 3s-3-1.3431-3-3v-5c0-1.6569 1.3431-3 3-3zm8-13c1.6569 0 3 1.3431 3 3v18c0 1.6569-1.3431 3-3 3s-3-1.3431-3-3V3c0-1.6569 1.3431-3 3-3zm0 2c-.5523 0-1 .4477-1 1v18c0 .5523.4477 1 1 1s1-.4477 1-1V3c0-.5523-.4477-1-1-1zm8 5c1.6569 0 3 1.3431 3 3v11c0 1.6569-1.3431 3-3 3s-3-1.3431-3-3V10c0-1.6569 1.3431-3 3-3zm0 2c-.5523 0-1 .4477-1 1v11c0 .5523.4477 1 1 1s1-.4477 1-1V10c0-.5523-.4477-1-1-1z"/></svg>
